contributed-vectors/streaming.svg

<svg width="192" height="192" viewBox="0 0 192 192" fill="none" xmlns="http://www.w3.org/2000/svg">
<g clip-path="url(#clip0)">
<path d="M172.5 29.1V162.9C172.5 168.2 168.2 172.5 162.9 172.5H29.1C23.8 172.5 19.5 168.2 19.5 162.9V29.1C19.5 23.8 23.8 19.5 29.1 19.5H163C168.2 19.5 172.5 23.8 172.5 29.1Z" fill="#728DBE"/>
<path d="M61.9056 119.228L66.6226 129.865C66.6226 129.865 67.675 131.631 69.6671 132.233C71.6591 132.834 88.8636 132.233 99.1529 132.233C100.229 132.233 106.655 131.696 109.56 124.733C111.861 119.219 116.428 95.449 116.428 95.449C116.428 95.449 117.135 92.978 115.388 91.5428C113.635 90.1017 109.226 86.9048 106.028 84.6007C104.488 83.4912 102.417 83.398 101.408 87.6301C100.344 92.0932 95.3018 113.177 95.3018 113.177C95.3018 113.177 94.4233 115.993 91.791 115.993C89.0515 115.993 72.2916 115.942 63.5289 115.942C62.3944 115.942 60.9889 117.161 61.9056 119.228V119.228Z" fill="white"/>
<path d="M130.094 72.772L125.377 62.1352C125.377 62.1352 124.324 60.3686 122.332 59.7673C120.34 59.1659 103.136 59.7673 92.8466 59.7673C91.7702 59.7673 85.3446 60.3044 82.4394 67.2667C80.1383 72.781 75.5714 96.551 75.5714 96.551C75.5714 96.551 74.8649 99.022 76.6113 100.457C78.365 101.898 82.7732 105.095 85.9713 107.399C87.5114 108.509 89.5821 108.602 90.5912 104.37C91.6554 99.9068 96.6978 78.8233 96.6978 78.8233C96.6978 78.8233 97.5762 76.0068 100.209 76.0068C102.948 76.0068 119.708 76.058 128.471 76.058C129.605 76.058 131.011 74.839 130.094 72.7719V72.772Z" fill="white"/>
</g>
<defs>
<clipPath id="clip0">
<rect width="192" height="192" fill="white"/>
</clipPath>
</defs>
</svg>

<svg xmlns="http://www.w3.org/2000/svg" width="192" height="192" fill="none"><g clip-path="url(#a)"><path fill="#728DBE" d="M172.5 29.1v133.8c0 5.3-4.3 9.6-9.6 9.6H29.1c-5.3 0-9.6-4.3-9.6-9.6V29.1c0-5.3 4.3-9.6 9.6-9.6H163c5.2 0 9.5 4.3 9.5 9.6Z"/><path fill="#fff" d="m61.906 119.228 4.717 10.637s1.052 1.766 3.044 2.368c1.992.601 19.197 0 29.486 0 1.076 0 7.502-.537 10.407-7.5 2.301-5.514 6.868-29.284 6.868-29.284s.707-2.471-1.04-3.906c-1.753-1.441-6.162-4.638-9.36-6.942-1.54-1.11-3.611-1.203-4.62 3.03-1.064 4.462-6.106 25.546-6.106 25.546s-.879 2.816-3.511 2.816c-2.74 0-19.5-.051-28.262-.051-1.135 0-2.54 1.219-1.623 3.286Z"/><path fill="#fff" d="m130.094 72.772-4.717-10.637s-1.053-1.766-3.045-2.368c-1.992-.601-19.196 0-29.485 0-1.077 0-7.502.537-10.408 7.5-2.3 5.514-6.868 29.284-6.868 29.284s-.706 2.471 1.04 3.906c1.754 1.441 6.162 4.638 9.36 6.942 1.54 1.11 3.611 1.203 4.62-3.029a87078.6 87078.6 0 0 1 6.107-25.547s.878-2.816 3.511-2.816c2.739 0 19.499.051 28.262.051 1.134 0 2.54-1.219 1.623-3.286Z"/></g><defs><clipPath id="a"><path fill="#fff" d="M0 0h192v192H0z"/></clipPath></defs></svg>
